X:1
T:33
T:Hugo Distler
T:Paulus Speratus (1484 - 1551)
T:33.  Salvation Now Has Come to Us Es ist das Heil uns kommen her
T:Bärenreiter
T:Bärenreiter
T:Bärenreiter
T:Bärenreiter
T:Bärenreiter
T:Bärenreiter
T:Bärenreiter
T:Bärenreiter
T:Bärenreiter
C:Hugo Distler
Z:Paulus Speratus
Z:(1484 - 1551)
Z:Bärenreiter
%%score [ ( 1 2 ) ( 3 4 ) ( 5 6 ) ]
L:1/8
Q:1/4=65
M:4/4
K:Eb
V:1 treble nm="Sop. 1"
V:2 treble 
V:3 treble nm="Sop. 2"
V:4 treble 
V:5 treble nm="Alto"
V:6 treble 
V:1
|: z8 | z4 z2 z B | B2 B2 B2 _d2 | (cB/A/ B2 A/B/c/_d/ e>d | c_d) B2 !breath!A2 B2 | %5
w: |1. Sal-|va- tion now has|come _ _ _ _ _ _ _ _ _|_ _ to us through|
w: |Good|works can- not come|to _ _ _ _ _ _ _ _ _|_ _ our aid, nor|
[M:5/4] G2 (E/F/) (G2 =A) B2 c2 |1[M:2/4] d4 :|2[M:4/4] d4 z2 _B2 ||[M:5/4] e4 e2 c2 d2 | %9
w: God's free _ grace _ and fav-|or.|* Our|faith on Je- sus|
w: can they _ e'er _ pro- tect||us; *||
[M:5/8] (e>dB c)c |[M:4/4] B4 z4 | z2 B2 e2 B2 | c2 G2 B2 A2 || %13
w: Christ _ _ _ is|set,|who for us|all all needs has|
w: ||||
[M:3/4]"^Somewhat faster, but calmly" G4 z2 | G2 A2 B2 | c4 B2- | B2 A4 | B4 z2 ||[M:4/4] z B | %19
w: met.|He is our|In- ter-|* ces-|sor.|2. All|
w: ||||||
 B2 B2 B2 _d2 | c2 B2 !breath!A2 B2 |"^*)" G2 E2 G2 =A(B- | Bc) !breath!B2 B4 | B2 B2 B2 _d2 | %24
w: hon- or, bless- ing,|thanks and praise, for|good gifts free- ly giv-|* * en; God,|Fa- ther, Son, and|
w: |||||
 c2 B2 !breath!_A2 B2 | !breath!G2 c2 !breath!=A2 dd- | dd e4 d2 | c4 B4 || z2 B2 e2 d2 | %29
w: Ho- ly Ghost, who|seeks, who seeks, who seeks|_ to see ful-|fill- ed|what He in|
w: |||||
 c2 d2 e2 c2 | !breath!BB e4 !breath!BB | e2 B2 c2 G2 |[M:2/4] B2 A2 | %33
w: us has now be-|gun, to hon- or, to|hon- or His great|ma- jes-|
w: ||||
[M:4/4] !breath!GG F2 A G2 F | (E2 DC D4) | E6 || z B |: B2 B2 B2 _d2 | c2 B2 A2 B2- | %39
w: ty, whose name a- lone is|ho- * * *|ly.|3. Your|king- dom come, Your|will on earth be|
w: ||||give to us our|dai- ly bread; for-|
[M:3/4] B2 G2 E2 |[M:4/4] (G>=A BA/G/ A/B<cB/)A |1 B4 B2 z B :|2 B4 B2 z2 || z8 | %44
w: _ done as|in _ _ _ _ _ _ _ _ Your|heav- en; and|||
w: * give our|sins _ _ _ _ _ _ _ _ and||err- ors...||
 z2 BB !breath!e2 BB |[M:6/4] c>c B2 _A2 A2 !breath!G4 |[M:4/4] G4 F2 A2 | %47
w: |||
w: lead us not lead us|not in temp- ta- tion’s thrall;|save us from|
[M:5/4] G2 !breath!GGFA G2 !breath!F2 |[M:4/4] (E3 F A2 GF |[M:5/4] GA B3 c BcBc | %50
w: |||
w: e- vil, save us from e- vil.|A- * * * *||
[M:4/4] e2 f2) e4 |] %51
w: |
w: * * men!|
V:2
|: x8 | x8 | x8 | x8 | x8 |[M:5/4] x10 |1[M:2/4] =B4 :|2[M:4/4] =B4 z4 ||[M:5/4] x10 |[M:5/8] x5 | %10
[M:4/4] x8 | x8 | x8 ||[M:3/4] x6 | x6 | x6 | x6 | x6 ||[M:4/4] x2 | x8 | x8 | x8 | x8 | x8 | x8 | %25
 x8 | x8 | x8 || x8 | x8 | x8 | x8 |[M:2/4] x4 |[M:4/4] x8 | x8 | x6 || x2 |: x8 | x8 |[M:3/4] x6 | %40
[M:4/4] x8 |1 x8 :|2 x8 || x8 | x8 |[M:6/4] x12 |[M:4/4] x8 |[M:5/4] x10 |[M:4/4] x8 | %49
[M:5/4] x5 c BcBA |[M:4/4] B2 c2 B4 |] %51
V:3
|: z4 z2 z F | F2 F2 F2 A2 | (G>A B/>B/A/G/ FE) F2 | E6 z2 | z2 E2 C2 B,2 | %5
w: 1. Sal-|va- tion now has|come _ _ _ _ _ _ _ to|us|through God's free|
w: Good|works can- not come|to _ _ _ _ _ _ _ our|aid,|nor can they|
[M:5/4] C2 D2 (E3 D E2) |1[M:2/4] D4 :|2[M:4/4] D4 z2 G2 ||[M:5/4] G4 G2 A2 B2 |[M:5/8] (B>AG F)E | %10
w: grace and fav- * *|or.|* Our|faith on Je- sus|Christ _ _ _ is|
w: e'er pro- tect _ _|_|us; *|||
[M:4/4] F4 z2 E2 | (A3 G E2) F2 | E3 E D2 C2 ||[M:3/4] E4 z2 | G2 F2 A2 | G4 F2 | (E2 F4) | %17
w: set, who|for _ _ us|all all needs has|met.|He is our|In- ter-|ces- *|
w: |||||||
 G4 z2 ||[M:4/4] z2 | z2 z E E2 _D2 |"^*)" E2 _G F2 E !breath!_D2 | E2 C2 !breath!C2 F2 | %22
w: sor.||2. All hon- or,|bless- ing, thanks and praise,|for good gifts, for|
w: |||||
 D2 D =G2 E F2 | B,2 z E E2 _D2 | E2 _G F2 E !breath!_D2 | E2 !breath!C2 F2 !breath!=D2 | %26
w: good gifts free- ly giv-|en; God, Fa- ther,|Son, and Ho- ly Ghost,|who seeks, who seeks,|
w: ||||
 G2 G=A B2 B2 | (B2 =A2) !breath!B2 B,2 || E2 D2 C2 D2 | EF !breath!B,3 B, E2 | D2 CG, B,2 A,2 | %31
w: who seeks to see ful-|fill- * ed what|He in us has|now be- gun, to hon-|or His great ma- jes-|
w: |||||
 !breath!G,3 D C2 E2 |[M:2/4] D2 C2 |[M:4/4] (B,4 C2 A,2 | B,8) |"^( )" E6 || z B |: A2 G2 F3 B | %38
w: ty, whose name a-|lone is|ho- * *||ly.|3. Your|king- dom come, Your|
w: ||||||give to us our|
 A2 G2 F2 G2- |[M:3/4] G2 (G3 F) |[M:4/4] E2 F2 F2 (F2- |1 F2 G2) F2 z B :|2 %42
w: will on earth be|_ done _|as in Your heav-|* * en; and|
w: dai- ly bread; for-|* give _|our sins and err-||
 (F2 G2) !breath!F2 B,2 || E2 D2 C2 D2 | E2 E2 !breath!E2 B,B, |[M:6/4] E2 ED C2 D2 !breath!=E4 | %46
w: ||||
w: * * ors, as|we our debt- ors|do for- give, lead us|not in temp- ta- tion’s thrall;|
[M:4/4] D4 D2 C2 |[M:5/4] _E2 !breath!DDDC E2 !breath!D2 |[M:4/4] (C4 _D3 C | %49
w: |||
w: save us from|e- vil, save us from e- vil.|A- * *|
[M:5/4] _DE F3 E D2 EF |[M:4/4] G2 A2) G4 |] %51
w: ||
w: |* * men!|
V:4
|: x8 | x8 | x8 | x8 | x8 |[M:5/4] x10 |1[M:2/4] x4 :|2[M:4/4] x8 ||[M:5/4] x10 |[M:5/8] x5 | %10
[M:4/4] D4 x4 | x8 | x8 ||[M:3/4] x6 | x6 | x6 | x6 | x6 ||[M:4/4] x2 | x8 | x8 | x8 | x8 | x8 | %24
 x8 | x8 | x8 | x8 || x8 | x8 | x8 | x8 |[M:2/4] x4 |[M:4/4] x8 | x8 | E,6 || x2 |: x8 | x8 | %39
[M:3/4] x6 |[M:4/4] x6 F2- |1 F2 E2 D2 z B :|2 (F2 E2) D2 B,2 || x8 | x4 B,2 B,B, |[M:6/4] x12 | %46
[M:4/4] x8 |[M:5/4] x10 |[M:4/4] x8 |[M:5/4] x10 |[M:4/4] x8 |] %51
V:5
|: z2 z C C2 C2 | C2 E2 (DC/B,/) C2 | (B,/C/D/E/ !breath!F)F F2 F2 | F2 A2 G3 F | E4 z2 E2 | %5
w: 1. Sal- va- tion|now has come _ _ to|us, _ _ _ _ sal- va- tion|now has come to|us through|
w: Good works can-|not come to _ _ our|aid, _ _ _ _ us works can-|not come to our|aid, nor|
[M:5/4] C2 B,2 C3 B, =A,2 |1[M:2/4] G,4 :|2[M:4/4] G,4 z2 E2 ||[M:5/4] C2 _A,2 E4 F2 | %9
w: God's free grace and fav-|or.|* Our|faith on Je- sus|
w: can they e'er pro- tect||us; *||
[M:5/8] (C>DE F)F |[M:4/4] !breath!B,2 B,2 E2 B,2 | C2 G,2 (B,2 A,G, | A,2) C2 !breath!G,4 || %13
w: Christ _ _ _ is|set, who for us|all all needs _ _|_ has met.|
w: ||||
[M:3/4] C2 B,2 _D2 | C4 B,2 | (F3 E C2 | E4 C2) | E4 z2 ||[M:4/4] z2 | z8 | z8 | z8 | z8 | z8 | %24
w: He is our|In- ter-|ces- * *||sor.|||||||
w: |||||||||||
 z8 | z8 | z8 | z8 || z8 | z8 | z8 | z8 |[M:2/4] z4 |[M:4/4] z8 | z8 | z6 || z B, |: E3 E B,3 B, | %38
w: ||||||||||||3. Your|king- dom come, Your|
w: |||||||||||||give to us our|
 F3 F C2 E2- |[M:3/4] E2 D2 C2 |[M:4/4] (D3 E F2) F2 |1 D4 B,2 z B, :|2 D4 !breath!B,2 B,2- || %43
w: will on earth be|_ done as|in _ _ Your|heav- en; and||
w: dai- ly bread; for-|* give our|sins _ _ and||err- ors, as|
 B,B, B,2 A,2 G,2 | C2 C2 G,4 |[M:6/4] z2 B,B, E2 ED C2 C2 |[M:4/4] D8- |[M:5/4] D8 z2 | %48
w: |||||
w: _ we our debt- ors|do for- give,|lead us not in temp- ta- tion’s|thrall;|_|
[M:4/4] z2"^*)" G,2 F,2 A,2 |[M:5/4] (G,3 F,) !breath!E,2 F,4 |[M:4/4] E,8 |] %51
w: |||
w: save us from|e- * vil. A-|men!|
V:6
|: x8 | x8 | x8 | x8 | x8 |[M:5/4] x10 |1[M:2/4] x4 :|2[M:4/4] x8 ||[M:5/4] x10 |[M:5/8] x5 | %10
[M:4/4] x8 | x8 | x8 ||[M:3/4] x6 | x6 | x6 | x6 | x6 ||[M:4/4] x2 | x8 | x8 | x8 | x8 | x8 | x8 | %25
 x8 | x8 | x8 || x8 | x8 | x8 | x8 |[M:2/4] x4 |[M:4/4] x8 | x8 | x6 || x2 |: x8 | x8 |[M:3/4] x6 | %40
[M:4/4] x8 |1 x8 :|2 x8 || x8 | x8 |[M:6/4] x12 |[M:4/4] G,8- |[M:5/4] G,8 x2 |[M:4/4] x8 | %49
[M:5/4] x10 |[M:4/4] x8 |] %51

